frontend/static/navbaricons/ytbmp3.svg

<?xml version="1.0" encoding="UTF-8" standalone="no"?>
<!-- Created with Inkscape (http://www.inkscape.org/) -->

<svg
   width="50"
   height="50"
   viewBox="0 0 13.229166 13.229167"
   version="1.1"
   id="svg5"
   xml:space="preserve"
   inkscape:version="1.2.2 (b0a8486541, 2022-12-01)"
   sodipodi:docname="ytbmp3.svg"
   xmlns:inkscape="http://www.inkscape.org/namespaces/inkscape"
   xmlns:sodipodi="http://sodipodi.sourceforge.net/DTD/sodipodi-0.dtd"
   xmlns="http://www.w3.org/2000/svg"
   xmlns:svg="http://www.w3.org/2000/svg"><sodipodi:namedview
     id="namedview7"
     pagecolor="#ffffff"
     bordercolor="#000000"
     borderopacity="0.25"
     inkscape:showpageshadow="2"
     inkscape:pageopacity="0.0"
     inkscape:pagecheckerboard="0"
     inkscape:deskcolor="#d1d1d1"
     inkscape:document-units="mm"
     showgrid="false"
     inkscape:zoom="6.1290685"
     inkscape:cx="3.7526094"
     inkscape:cy="42.910273"
     inkscape:window-width="1910"
     inkscape:window-height="1044"
     inkscape:window-x="0"
     inkscape:window-y="0"
     inkscape:window-maximized="1"
     inkscape:current-layer="layer1" /><defs
     id="defs2" /><g
     inkscape:label="Layer 1"
     inkscape:groupmode="layer"
     id="layer1"><path
       style="fill:#ab2525;stroke-width:0.0312127;fill-opacity:1"
       d="M 5.421909,12.790378 5.412319,12.776098 4.8993826,12.754678 4.3864373,12.733258 3.9240378,12.694488 3.4616406,12.655718 3.101997,12.599138 2.7423534,12.542588 2.6395974,12.522068 2.5368385,12.501542 2.3290957,12.407865 2.1213529,12.314211 1.9565999,12.173865 1.7918691,12.033518 1.6079971,11.759394 1.4241251,11.485271 1.3447045,11.280339 1.265284,11.075407 1.2008775,10.784162 1.1364709,10.492917 1.0993486,10.144028 1.0622261,9.7951401 1.0330234,9.4158958 1.0038207,9.0366491 0.99512008,8.8470214 0.98641958,8.6573936 0.95590068,7.676795 0.92535908,6.6961985 l 0.0147241,-0.707046 0.0147241,-0.7070439 0.026905,-0.5878304 0.0269051,-0.5878304 0.038662,-0.4550955 0.038662,-0.4550956 0.04058,-0.3033953 0.04058,-0.3033955 0.065834,-0.2465117 0.065834,-0.2465094 0.099812,-0.2341725 0.09981,-0.2341747 0.1623884,-0.2242738 0.1623883,-0.2242739 0.1255112,-0.1040052 0.1255113,-0.10400521 0.1834481,-0.091289 0.1834482,-0.091289 0.1890477,-0.0397549 0.1890477,-0.0397549 0.089906,-0.0149472 0.089906,-0.0149472 0.4110214,-0.0416511 0.4110216,-0.0416511 0.2440421,-0.0185166 0.2440442,-0.0185166 1.8495957,-0.0231347 1.8495935,-0.0231347 0.6935986,0.0436587 0.6935984,0.0436587 0.333954,0.0379705 0.3339552,0.0379706 0.244044,0.0408257 0.244045,0.0408257 0.205511,0.0750037 0.205512,0.0750037 0.179813,0.13856211 0.179811,0.1385621 0.208813,0.3039577 0.208814,0.3039554 0.09245,0.272261 0.09245,0.2722609 0.05356,0.277644 0.05357,0.2776462 0.0087,0.075851 0.0087,0.075851 0.02912,0.2654722 0.02909,0.2654721 0.02488,0.3223583 0.02488,0.3223583 0.02356,0.5174629 0.02356,0.517465 0.01829,0.8288585 0.01829,0.8288563 -0.02991,0.9291515 -0.02992,0.9291515 -0.0263,0.3792468 -0.0263,0.3792443 -0.05178,0.5119811 -0.05178,0.511982 -0.04839,0.235781 -0.04839,0.235779 -0.03752,0.105544 -0.03752,0.105545 -0.138785,0.272523 -0.138786,0.272524 -0.126625,0.167899 -0.126627,0.167899 -0.159823,0.118972 -0.159823,0.118972 h -0.04698 -0.04698 l -0.02608,0.0385 -0.02608,0.0385 -0.18336,0.05644 -0.183359,0.05644 -0.187463,0.03773 -0.187464,0.03773 L 9.4983058,12.67588 8.881772,12.7315 8.1624872,12.75247 7.4432,12.77344 6.437334,12.78905 5.4314658,12.80466 Z m 2.8467276,-0.855872 0.1574134,0.0069 0.471964,-0.03993 0.4719631,-0.03994 0.359643,-0.03809 0.3596439,-0.03809 0.115606,-0.02097 0.115605,-0.02097 0.03853,-0.01584 0.03853,-0.01584 0.108935,-0.02007 0.108935,-0.02007 0.147955,-0.08025 0.147953,-0.08025 0.08462,-0.09323 0.08462,-0.09323 0.103738,-0.157972 0.103738,-0.157971 0.08479,-0.265499 0.08479,-0.265472 0.05272,-0.474056 0.05272,-0.4740578 0.02805,-0.3792443 0.02805,-0.3792466 0.02477,-0.8343399 0.02477,-0.8343398 2.58e-4,-0.626403 2.57e-4,-0.6264007 -0.02564,-0.6061021 -0.02563,-0.6061462 -0.02698,-0.3982072 -0.02697,-0.3982071 -0.0266,-0.2844351 -0.0266,-0.2844349 L 11.458401,2.9686898 11.406016,2.6652943 11.342304,2.4788122 11.278591,2.29233 11.148238,2.0888259 11.017886,1.8853218 10.861856,1.7780594 10.705825,1.670797 10.590219,1.6306628 10.474613,1.5905287 10.230568,1.5503258 9.9865231,1.5101247 9.6782571,1.4718198 9.3699931,1.433515 8.8819041,1.388629 8.3938177,1.3437431 l -1.7468399,-0.00133 -1.7468397,-0.00133 -0.6036878,0.045957 -0.6036855,0.045957 -0.2954223,0.038907 -0.2954222,0.038907 -0.269731,0.05459 -0.2697332,0.054591 -0.1322709,0.058428 -0.132271,0.058428 -0.1547586,0.1525723 -0.1547585,0.1525723 -0.097245,0.2162872 -0.097245,0.2162872 -0.059164,0.2406109 -0.059164,0.2406108 -0.050174,0.5943 -0.050174,0.5943002 -0.025611,0.7774537 -0.025611,0.7774538 -0.015616,0.6826421 -0.015616,0.6826422 0.027709,0.7395281 0.027709,0.7395282 0.011597,0.1896278 0.011597,0.1896277 0.028377,0.4550956 0.028377,0.4550954 0.047629,0.3498274 0.047631,0.349828 0.065901,0.212539 0.065901,0.212539 0.1720036,0.247751 0.1720035,0.247746 0.1127286,0.07132 0.1127285,0.07132 0.2616685,0.07432 0.2616684,0.07431 0.4495539,0.06166 0.4495562,0.06166 0.7578194,0.051 0.7578195,0.051 1.3743528,-0.02119 1.3743507,-0.02119 0.1574133,0.0066 z"
       id="path302" /><path
       style="fill:#2580ab;fill-opacity:1;stroke-width:0.0433394"
       d="m 4.9452162,4.2242477 0.06463,-0.1224538 0.058629,-0.060346 0.058628,-0.060346 1.3728114,-0.00157 1.372809,-0.00157 0.096799,0.1171635 0.096799,0.1171635 0.023135,0.2203064 0.023135,0.2203065 -0.2018532,0.467356 -0.2018531,0.467356 -0.024696,0.024946 -0.024718,0.024946 -0.2516806,0.5381058 -0.2516808,0.5381058 v 0.017641 0.017198 l -0.1943572,0.3997934 -0.1943573,0.3997931 -0.107151,0.07239 -0.107151,0.072348 H 6.4403416 6.3275909 L 6.2076348,7.561088 6.0876787,7.4293009 6.0527206,7.3258591 6.0177624,7.2224173 5.8568688,6.8667109 5.6959753,6.5110045 5.5280319,6.1238138 5.3600887,5.7366229 5.3362845,5.7116768 5.3124803,5.6867306 5.2345317,5.4886179 5.1565832,5.2905075 5.0194489,4.9685651 4.8823145,4.6466232 4.8814534,4.4966859 4.8805923,4.3467486 4.9452223,4.2242948 Z"
       id="path862" /><path
       style="fill:#257cab;fill-opacity:1;stroke-width:0.0312127"
       d="m 3.3511945,5.5691249 0.085132,-0.081183 0.1092256,-0.014724 0.1092256,-0.014724 h 0.087965 0.087965 l 0.097067,0.057803 0.097067,0.057803 0.723486,0.8477188 0.7234856,0.8477319 0.2483611,0.29542 0.2483634,0.2954222 0.2051326,0.2362049 0.2051325,0.236207 0.07362,0.01584 0.07362,0.01584 0.064429,-0.02443 0.064429,-0.024428 0.07855,-0.090352 0.078551,-0.090352 0.1896275,-0.2138112 0.1896277,-0.2138109 0.037926,-0.044551 0.037926,-0.044551 0.1991093,-0.2212398 0.199109,-0.2212399 v -0.0087 -0.0087 L 7.798066,7.0218075 7.9308054,6.8852754 v -0.030564 -0.030564 l 0.032281,-0.00848 0.032281,-0.00848 0.090977,-0.1075531 0.090977,-0.1075525 0.1991092,-0.2219537 0.1991091,-0.2219538 v -0.0087 -0.0087 L 8.7082792,5.994248 8.8410187,5.8577161 v -0.032705 -0.032705 h 0.030898 0.030898 l 0.067217,-0.095484 0.067217,-0.095484 0.073174,-0.034714 0.073174,-0.034713 -0.020078,-0.022086 -0.020078,-0.022085 0.079688,-0.017179 0.079688,-0.017179 0.121719,0.015394 0.1217187,0.015394 0.124061,0.070452 0.124062,0.070452 0.02119,0.1080884 0.02119,0.1080871 L 9.287236,6.4652856 8.7377081,7.0893215 8.1739225,7.7315417 7.6101346,8.373764 l -8.165e-4,0.012939 -8.142e-4,0.012939 -0.075784,0.077167 -0.075784,0.077167 -0.04589,0.051267 -0.04589,0.051266 -0.181061,0.2055119 -0.1810611,0.2055119 -0.050419,0.067422 -0.050418,0.067422 -0.1063475,0.06902 -0.1063475,0.069019 -0.1509884,0.00135 -0.1509883,0.00135 -0.07893,-0.0286 -0.07893,-0.0286 L 6.1554211,9.2152127 6.0811761,9.1445137 5.5589435,8.5281145 5.036711,7.911581 4.8853433,7.7317694 4.7339757,7.5519576 4.4117157,7.1794706 4.0894579,6.8069837 4.0135844,6.7170779 3.9377109,6.6271719 3.8228188,6.4858881 3.7079266,6.3446043 3.5655274,6.1864548 3.423128,6.0283052 3.3446891,5.9241661 3.2662502,5.820027 V 5.735141 5.650277 l 0.085132,-0.081183 z"
       id="path860" /></g></svg>

<svg xmlns="http://www.w3.org/2000/svg" xml:space="preserve" width="50" height="50" viewBox="0 0 13.229 13.229"><path d="m5.422 12.79-.01-.014-.513-.021-.513-.022-.462-.039-.462-.038-.36-.057-.36-.056-.102-.02-.103-.021-.208-.094-.208-.094-.164-.14-.165-.14-.184-.275-.184-.274-.08-.205-.079-.205-.064-.29-.065-.292-.037-.349-.037-.349-.029-.38-.03-.378-.008-.19-.009-.19-.03-.98-.03-.98.014-.708.015-.707.027-.588.027-.588.038-.455.039-.455.04-.303.041-.304.066-.246.066-.247.1-.234.1-.234.162-.224.162-.224.126-.104.125-.104.184-.092.182-.09.19-.04.188-.04.09-.014L3 .68l.41-.042.411-.042.244-.018.244-.019L6.16.536 8.01.513l.693.044.694.043.333.038.334.038.244.041.245.04.205.076.206.075.18.138.18.139.208.304.209.304.092.272.093.272.053.278.054.278.009.076.008.075.03.266.028.265.025.323.025.322.024.518.023.517.019.829.018.829-.03.929-.03.929-.026.38-.027.379-.051.512-.052.511-.048.236-.049.236-.037.106-.038.105-.139.273-.138.272-.127.168-.127.168-.16.119-.16.119h-.093l-.026.038-.027.039-.183.056-.183.057-.188.038-.187.037-.617.056-.616.056-.72.02-.719.021-1.006.016-1.006.016Zm2.847-.855.157.006.472-.04.472-.04.36-.038.36-.038.115-.02.115-.022.039-.015.039-.016.108-.02.11-.02.147-.08.148-.08.085-.094.085-.093.103-.158.104-.158.085-.266.085-.265.052-.474.053-.474.028-.38.028-.379.025-.834.025-.835V5.85l-.025-.606-.026-.607-.027-.398-.027-.398-.027-.284-.026-.285-.053-.303-.052-.304-.064-.186-.063-.187-.13-.203-.131-.204-.156-.107-.156-.107-.116-.04-.115-.04-.244-.04-.244-.04-.309-.04-.308-.037-.488-.045-.488-.045-1.747-.002H4.9l-.604.045-.603.046-.296.039-.295.039-.27.054-.27.055-.132.058-.132.059-.155.152-.155.153-.097.216-.097.217-.06.24-.058.24-.05.595-.05.594-.026.778-.026.777-.016.683-.015.683.027.74.028.739.012.19.011.189.029.455.028.455.048.35.047.35.066.212.066.213.172.248.172.247.113.072.113.071.261.074.262.075.45.061.45.062.757.05.758.052 1.374-.021 1.374-.021.158.006z" style="fill:#ab2525;stroke-width:.0312127;fill-opacity:1"/><path d="m4.945 4.224.065-.122.058-.06.06-.06L6.5 3.98l1.373-.002.097.117.096.117.023.22.024.22-.202.468-.202.468-.025.025-.025.025-.251.538-.252.538v.035l-.194.4-.195.4-.107.072-.107.072h-.225l-.12-.132-.12-.132-.035-.103-.035-.104-.161-.355-.161-.356-.168-.387-.168-.387-.024-.025-.024-.025-.077-.198-.078-.198-.138-.322-.137-.322v-.15l-.001-.15.064-.123Z" style="fill:#2580ab;fill-opacity:1;stroke-width:.0433394"/><path d="m3.351 5.57.085-.082.11-.015.109-.015h.176l.097.058.097.058.723.848.724.848.248.295.249.295.205.237.205.236.073.016.074.015.064-.024.065-.024.078-.09.079-.091.19-.214.19-.214.037-.044.038-.045.2-.221.198-.221v-.018l.133-.136.133-.137v-.06l.032-.01.032-.008.091-.107.091-.108.2-.222.199-.222v-.017l.132-.137.133-.136v-.066h.062l.067-.095.067-.096.073-.034.074-.035-.02-.022-.02-.022.08-.017.079-.018.122.016.121.015.124.07.124.071.022.108.02.108-.549.624-.55.624-.563.643-.564.642v.013l-.001.013-.076.077-.076.077-.046.051-.046.052-.18.205-.182.206-.05.067-.05.067-.107.07-.106.068-.151.002-.151.001-.08-.028-.078-.03-.075-.07-.074-.07-.522-.617-.522-.616-.152-.18-.151-.18-.322-.373-.323-.372-.075-.09-.076-.09-.115-.141-.115-.141-.142-.159-.143-.158-.078-.104-.079-.104v-.17l.085-.08z" style="fill:#257cab;fill-opacity:1;stroke-width:.0312127"/></svg>
